X: 1
T: Spootiskerry
L: 1/8
M: 4/4
K: G
DE |: "G"G2 DE GDEG | DEGA B2 AB | G2 DE GABd | "C"eged "D"B2 AB |
"G"G2 DE GDEG | DEGA B2 AB | "C"g2 ed edBA |1 "D"B2 G2 "G"G2 DE :|2 "D"B2 G2 "G"G2 ef||
"Em"g2 eded B2 | "D"BABG E2 DE | "C"GABd eged | "D"B2 A2 A2 ef |
"Em"g2 eded B2 | "D"BABG E2 DE | "C"GABd eged | "D"B2 G2 G2 ef |
"Em"g2 eded B2 | "D"BABG E2 DE | "C"GABd eged | "D"B2 A2 A2 DE |
"^G desc. line"G2 DE GDEG | DEGA B2 AB | "C"g2 ed edBA | "D"B2 G2 "G"G2 |]

